Yaru++/actions/symbolic/chat-message-new-symbolic.svg

<svg height="16" width="16" xmlns="http://www.w3.org/2000/svg"><g fill="#808080" transform="translate(-632.00004 -260)"><path d="m2 1c-1.108 0-2 .892-2 2v8c0 1.108.892 2 2 2h1.5214844l2.4785156 3 2-3h2v-1h-2.4335938l-1.5664062 2.400391-1.9667969-2.400391h-2.0332031c-.554 0-1-.446-1-1v-8c0-.554.446-1 1-1h12c.554 0 1 .446 1 1v5h1v-5c0-1.108-.892-2-2-2zm-.6992188 12c.1518701.0168.3208275.0211.5234376 0z" transform="translate(632.00004 260)"/><rect height="1" rx=".25" width="10" x="635.00006" y="264"/><rect height="1" rx=".25" width="7" x="635.00006" y="266"/><path d="m645.00004 270v2h-2v1h2v2h1v-2h2v-1h-2v-2z" fill="#808080"/></g></svg>

<?xml version="1.0" encoding="UTF-8" standalone="no"?>
<svg
   xmlns:dc="http://purl.org/dc/elements/1.1/"
   xmlns:cc="http://creativecommons.org/ns#"
   xmlns:rdf="http://www.w3.org/1999/02/22-rdf-syntax-ns#"
   xmlns:svg="http://www.w3.org/2000/svg"
   xmlns="http://www.w3.org/2000/svg"
   xmlns:sodipodi="http://sodipodi.sourceforge.net/DTD/sodipodi-0.dtd"
   xmlns:inkscape="http://www.inkscape.org/namespaces/inkscape"
   height="16"
   width="16"
   version="1.1"
   id="svg10"
   sodipodi:docname="chat-message-new-symbolic.svg"
   inkscape:version="0.92.4 (5da689c313, 2019-01-14)">
  <metadata
     id="metadata16">
    <rdf:RDF>
      <cc:Work
         rdf:about="">
        <dc:format>image/svg+xml</dc:format>
        <dc:type
           rdf:resource="http://purl.org/dc/dcmitype/StillImage" />
        <dc:title></dc:title>
      </cc:Work>
    </rdf:RDF>
  </metadata>
  <defs
     id="defs14" />
  <sodipodi:namedview
     pagecolor="#ffffff"
     bordercolor="#666666"
     borderopacity="1"
     objecttolerance="10"
     gridtolerance="10"
     guidetolerance="10"
     inkscape:pageopacity="0"
     inkscape:pageshadow="2"
     inkscape:window-width="1920"
     inkscape:window-height="1016"
     id="namedview12"
     showgrid="true"
     inkscape:zoom="41.7193"
     inkscape:cx="9.6394355"
     inkscape:cy="4.8042153"
     inkscape:window-x="0"
     inkscape:window-y="27"
     inkscape:window-maximized="1"
     inkscape:current-layer="g8">
    <inkscape:grid
       type="xygrid"
       id="grid826" />
  </sodipodi:namedview>
  <g
     fill="#808080"
     transform="translate(-632.00004 -260)"
     id="g8">
    <path
       d="M 2 1 C 0.892 1 0 1.892 0 3 L 0 11 C 0 12.108 0.892 13 2 13 L 3.5214844 13 L 6 16 L 8 13 L 10 13 L 10 12 L 7.5664062 12 L 6 14.400391 L 4.0332031 12 L 2 12 C 1.446 12 1 11.554 1 11 L 1 3 C 1 2.446 1.446 2 2 2 L 14 2 C 14.554 2 15 2.446 15 3 L 15 8 L 16 8 L 16 3 C 16 1.892 15.108 1 14 1 L 2 1 z M 1.3007812 13 C 1.4526513 13.0168 1.6216087 13.0211 1.8242188 13 L 1.3007812 13 z "
       transform="translate(632.00004,260)"
       id="path2" />
    <rect
       height="1"
       rx=".25"
       width="10"
       x="635.00006"
       y="264"
       id="rect4" />
    <rect
       height="1"
       rx=".25"
       width="7"
       x="635.00006"
       y="266"
       id="rect6" />
    <path
       style="fill:#808080;fill-opacity:1;stroke:none;stroke-width:1px;stroke-linecap:butt;stroke-linejoin:miter;stroke-opacity:1"
       d="m 645.00004,270 c 0,0 0,2 0,2 h -2 v 1 h 2 v 2 h 1 v -2 h 2 v -1 h -2 v -2 z"
       id="path828"
       inkscape:connector-curvature="0" />
  </g>
</svg>
